static/media/bag.df7ff0b0.svg

<svg xmlns="http://www.w3.org/2000/svg" viewBox="0 -31 512 512">
    <path d="m211 240h90v30h-90zm0 0"/>
    <path d="m415.378906 270h-84.378906v15c0 8.289062-6.710938 15-15 15h-120c-8.289062 0-15-6.710938-15-15v-15h-84.378906c-19.394532 0-36.546875-12.363281-42.6875-30.761719l-53.933594-161.828125v327.589844c0 24.8125 20.1875 45 45 45h422c24.8125 0 45-20.1875 45-45v-327.578125l-53.9375 161.816406c-6.136719 18.398438-23.289062 30.761719-42.683594 30.761719zm0 0"/>
    <path d="m316 0h-120c-24.8125 0-45 20.1875-45 45v15h-125.191406l56.574218 169.746094c2.050782 6.136718 7.777344 10.253906 14.238282 10.253906h84.378906v-15c0-8.289062 6.710938-15 15-15h120c8.289062 0 15 6.710938 15 15v15h84.378906c6.460938 0 12.1875-4.117188 14.238282-10.253906l56.578124-169.746094h-125.195312v-15c0-24.8125-20.1875-45-45-45zm-135 60v-15c0-8.277344 6.722656-15 15-15h120c8.277344 0 15 6.722656 15 15v15zm0 0"/>
</svg>

<svg xmlns="http://www.w3.org/2000/svg" viewBox="0 -31 512 512"><path d="M211 240h90v30h-90zm0 0"/><path d="M415.379 270H331v15c0 8.29-6.71 15-15 15H196c-8.29 0-15-6.71-15-15v-15H96.621a44.95 44.95 0 0 1-42.687-30.762L0 77.41V405c0 24.813 20.188 45 45 45h422c24.813 0 45-20.188 45-45V77.422l-53.938 161.816A44.94 44.94 0 0 1 415.38 270zm0 0"/><path d="M316 0H196c-24.813 0-45 20.188-45 45v15H25.809l56.574 169.746A14.997 14.997 0 0 0 96.62 240H181v-15c0-8.29 6.71-15 15-15h120c8.29 0 15 6.71 15 15v15h84.379c6.46 0 12.187-4.117 14.238-10.254L486.195 60H361V45c0-24.813-20.187-45-45-45zM181 60V45c0-8.277 6.723-15 15-15h120c8.277 0 15 6.723 15 15v15zm0 0"/></svg>
